X:066
T: Jackson's Dream
N: O'Farrell's Pocket Companion v.1 (Sky ed. p.47)
N: "Irish"
M: 6/8
L: 1/8
R: jig
Q: 320
K: D
z|DED D2d|AGF G2B|AFD FED|EFE E2F|
DED D2d|AGF G2B|AFD FEF|DED D2 :|
g|fed edB|ABd e3|fed edB|ABd d3|
f2d edc|ABd g2e|faf g2e|fdd d2 :|
